X:320
T: Skin the Peelers
S: "Roche Collection of Traditional Irish Music" [II/24/255]
L: 1/8
M: 9/8
R: slip jig
K: Edor
B2B BAB G2A | B2B BAB dBA |
B2B BAB G2A | B2e e2B dBA :|
B2e e2f g2A | B2e e2B dBA |
B2e e2f g2a | b2a g2e dBA :|
